X: 131002
T: KISSED YESTREEN
Q: "Scotch Jig."
R: Jig.
%R: jig
B: James Kerr "Merry Melodies" v.1 p.31 s.0 #2
Z: 2016 John Chambers <jc:trillian.mit.edu>
M: 6/8
L: 1/8
K: Am
uE |\
ABA ABd | (e/^f/g)uB uA2uc | BAB GAG | BAB GAB |\
cBc dcd | ede ua2ug | edB ABd | ve2vA uA2 |]
u^g |\
va2vA ABA | a2A A2^f | g2G GAG | BAB GAB |\
cBc dcd | ede a2g | edB ABd | e2A A2 |]

%%sep 1 1 500
%%sep 1 1 500

